X:1
T:Title
%%score 1 ( 2 3 )
L:1/8
Q:1/4=94
M:3/4
K:Bb
V:1 treble nm="Grand Piano, Soprano"
V:2 bass nm="Choir Pad, Amalfi, J. M. S., 1886"
V:3 bass 
V:1
 [DF]>[DF] [DB]3 [DB] | [CA]>[DB] [Fd]2 [DF]2 | [FB]>[FA] [EG]3 [EA] | [EB]>[=Ec] [Fc]4 | %4
w: By~J.~M.~S.,~1886 * * *||||
 [Ge]>[Fd] [Ec]3 [EB] | [EA]>[EG] [EG] [DF]3 | [FB]>[Gc] [Fd] [Ge]3 | [Fd]>[Ec] [DB]4 | %8
w: ||||
 [DB]>[DB] [DB]3 [DB] | [DA][DG] [DA]2 D2 | [DG]>[DA] [DB]3 [DA] | [DB]>[Fc] [Fd]4 | %12
w: ||||
 [Fd]>[Fd] [^Fd]3 [Ac] | [GB]>[EG] [EG] [DF]3 | [FB]>[Gc] [Fd]>[Fc] [Ff]2- | [Ff][EA] [DB]4- | %16
w: ||||
 [DB]4 z2 |] %17
w: |
V:2
 [B,,B,]>[B,,B,] [B,,F,]3 [B,,F,] | [B,,F,]>[B,,F,] [B,,B,]2 [B,,B,]2 | %2
 [D,B,]>[D,B,] [E,B,]3 [E,B,] | [E,G,]>[C,G,] [F,A,]4 | [F,A,]>[F,A,] [F,A,]3 [F,B,] | %5
 [F,C]>[F,A,] [B,,B,] [B,,B,]3 | [D,B,]>[E,B,] [F,B,] [F,B,]3 | [F,A,]>[F,A,] [B,,B,]4 | %8
 [B,,F,]>[B,,F,] [G,,G,]3 [G,,G,] | [A,,^F,][B,,G,] [D,F,]2 F,-[C,F,] | %10
 [B,,G,]>[D,^F,] G,3 [D,F,] | G,>[F,A,] [B,,B,]4 | [B,,B,]>[B,,B,] [D,A,]3 [D,^F,] | %13
 [E,G,]>[E,B,] [B,,B,] [B,,B,]3 | [D,B,]>[E,B,] [F,B,]>[F,A,] [F,A,]2- | [F,A,][F,C] [B,,B,]4- | %16
 [B,,B,]4 z2 |] %17
V:3
 x6 | x6 | x6 | x6 | x6 | x6 | x6 | x6 | x6 | z2 z2 .D,2 | x6 | x6 | x6 | x6 | x6 | x6 | x6 |] %17

